packages/ffe-icons/icons/filled/sm/reduce_capacity.svg

<svg xmlns="http://www.w3.org/2000/svg" height="20" viewBox="0 -960 960 960" width="20"><path d="M154.001-106.001v-24.153q0-19.057 10.461-33.913 10.462-14.855 27.384-21.702 22.847-11 47.077-15.615 24.231-4.615 49.077-4.615 24.846 0 49.2 5.093 24.354 5.094 46.954 15.137 16.922 7.847 27.384 22.077 10.461 14.231 10.461 33.538v24.153H154.001Zm384 0v-24.153q0-19.057 10.461-33.913 10.462-14.855 27.384-21.702 22.847-11 47.077-15.615 24.231-4.615 49.077-4.615 24.846 0 49.2 5.093 24.354 5.094 46.954 15.137 16.922 7.847 27.384 22.077 10.461 14.231 10.461 33.538v24.153H538.001Zm-250.213-144q-25.942 0-43.864-18.135-17.923-18.135-17.923-44.076 0-25.942 18.135-43.864 18.135-17.923 44.076-17.923 25.942 0 43.864 18.135 17.923 18.135 17.923 44.076 0 25.942-18.135 43.864-18.135 17.923-44.076 17.923Zm384 0q-25.942 0-43.864-18.135-17.923-18.135-17.923-44.076 0-25.942 18.135-43.864 18.135-17.923 44.076-17.923 25.942 0 43.864 18.135 17.923 18.135 17.923 44.076 0 25.942-18.135 43.864-18.135 17.923-44.076 17.923ZM497.846-388.614l55.77-55.77q5.44-5.462 12.566-5.462 7.125 0 12.202 5.077t5.077 12.395q0 7.318-5.077 12.758l-76.077 76.462q-9.482 9.846-22.125 9.846t-22.489-9.846l-76.462-76.462q-5.077-5.44-4.884-12.758.192-7.318 5.269-12.395t12.576-5.269q7.5-.192 12.577 5.269l55.385 56.155V-504q0-7.707 5.069-12.777 5.07-5.069 12.777-5.069 7.707 0 12.777 5.069 5.069 5.07 5.069 12.777v115.386ZM106.001-586.001v-24.153q0-19.057 10.461-33.913 10.462-14.855 27.384-21.702 22.847-11 47.077-15.615 24.231-4.615 49.077-4.615 20.476 0 40.084 3.192 19.609 3.192 37.609 9.962-9.539 13.692-14.615 29.73-5.077 16.038-5.077 32.961v24.153h-192Zm240 0v-24.153q0-19.057 10.461-33.913 10.462-14.855 27.384-21.702 22.847-11 47.077-15.615 24.231-4.615 49.077-4.615 24.846 0 49.077 4.615 24.23 4.615 47.077 15.615 16.922 6.847 27.384 21.702 10.461 14.856 10.461 33.913v24.153H346.001Zm315.998 0v-24.153q0-16.923-4.884-32.961-4.885-16.038-14.423-29.73 18-6.77 37.416-9.962 19.416-3.192 39.892-3.192 24.846 0 49.077 4.615 24.23 4.615 47.077 15.615 16.922 6.847 27.384 21.702 10.461 14.856 10.461 33.913v24.153h-192Zm-422.211-144q-25.942 0-43.864-18.135-17.923-18.135-17.923-44.076 0-25.942 18.135-43.864 18.135-17.923 44.076-17.923 25.942 0 43.864 18.135 17.923 18.135 17.923 44.076 0 25.942-18.135 43.864-18.135 17.923-44.076 17.923Zm240 0q-25.942 0-43.864-18.135-17.923-18.135-17.923-44.076 0-25.942 18.135-43.864 18.135-17.923 44.076-17.923 25.942 0 43.864 18.135 17.923 18.135 17.923 44.076 0 25.942-18.135 43.864-18.135 17.923-44.076 17.923Zm240 0q-25.942 0-43.864-18.135-17.923-18.135-17.923-44.076 0-25.942 18.135-43.864 18.135-17.923 44.076-17.923 25.942 0 43.864 18.135 17.923 18.135 17.923 44.076 0 25.942-18.135 43.864-18.135 17.923-44.076 17.923Z"/></svg>

<svg xmlns="http://www.w3.org/2000/svg" height="20" viewBox="0 -960 960 960" width="20"><path d="M154-106v-24.15q0-19.06 10.46-33.92 10.46-14.85 27.39-21.7 22.84-11 47.07-15.61Q263.15-206 288-206q24.85 0 49.2 5.09 24.35 5.1 46.95 15.14 16.93 7.85 27.39 22.08Q422-149.46 422-130.15V-106H154Zm384 0v-24.15q0-19.06 10.46-33.92 10.46-14.85 27.39-21.7 22.84-11 47.07-15.61Q647.15-206 672-206q24.85 0 49.2 5.09 24.35 5.1 46.95 15.14 16.93 7.85 27.39 22.08Q806-149.46 806-130.15V-106H538ZM287.79-250q-25.94 0-43.87-18.14Q226-286.27 226-312.21t18.14-43.87Q262.27-374 288.21-374t43.87 18.14Q350-337.73 350-311.79t-18.14 43.87Q313.73-250 287.79-250Zm384 0q-25.94 0-43.87-18.14Q610-286.27 610-312.21t18.14-43.87Q646.27-374 672.21-374t43.87 18.14Q734-337.73 734-311.79t-18.14 43.87Q697.73-250 671.79-250ZM497.85-388.61l55.77-55.77q5.44-5.47 12.56-5.47 7.13 0 12.2 5.08 5.08 5.08 5.08 12.4 0 7.31-5.08 12.75l-76.07 76.47q-9.48 9.84-22.13 9.84-12.64 0-22.49-9.84l-76.46-76.47q-5.08-5.44-4.88-12.75.19-7.32 5.27-12.4 5.07-5.08 12.57-5.27 7.5-.19 12.58 5.27l55.38 56.16V-504q0-7.71 5.07-12.78 5.07-5.07 12.78-5.07 7.71 0 12.78 5.07 5.07 5.07 5.07 12.78v115.39ZM106-586v-24.15q0-19.06 10.46-33.92 10.46-14.85 27.39-21.7 22.84-11 47.07-15.61Q215.15-686 240-686q20.48 0 40.08 3.19 19.61 3.2 37.61 9.96-9.54 13.7-14.61 29.74-5.08 16.03-5.08 32.96V-586H106Zm240 0v-24.15q0-19.06 10.46-33.92 10.46-14.85 27.39-21.7 22.84-11 47.07-15.61Q455.15-686 480-686q24.85 0 49.08 4.62 24.23 4.61 47.07 15.61 16.93 6.85 27.39 21.7Q614-629.21 614-610.15V-586H346Zm316 0v-24.15q0-16.93-4.89-32.96-4.88-16.04-14.42-29.74 18-6.76 37.42-9.96Q699.52-686 720-686q24.85 0 49.08 4.62 24.23 4.61 47.07 15.61 16.93 6.85 27.39 21.7Q854-629.21 854-610.15V-586H662ZM239.79-730q-25.94 0-43.87-18.14Q178-766.27 178-792.21t18.14-43.87Q214.27-854 240.21-854t43.87 18.14Q302-817.73 302-791.79t-18.14 43.87Q265.73-730 239.79-730Zm240 0q-25.94 0-43.87-18.14Q418-766.27 418-792.21t18.14-43.87Q454.27-854 480.21-854t43.87 18.14Q542-817.73 542-791.79t-18.14 43.87Q505.73-730 479.79-730Zm240 0q-25.94 0-43.87-18.14Q658-766.27 658-792.21t18.14-43.87Q694.27-854 720.21-854t43.87 18.14Q782-817.73 782-791.79t-18.14 43.87Q745.73-730 719.79-730Z"/></svg>
